src/components/00-materials/images-raw/Help (Man).svg

<svg width="96" height="96" viewBox="0 0 96 96" fill="none" xmlns="http://www.w3.org/2000/svg">
<path d="M49 30C46.24 30 43.07 28.55 42 26C40.27 29.68 38.25 32 33 32H28V39.68C28 45.93 31.82 51 38.5 51C45.18 51 49 45.93 49 39.68V30Z" stroke="#00008F" stroke-width="2" stroke-linecap="round" stroke-linejoin="round"/>
<path d="M49 41C50.5565 39.8395 51.8195 38.3304 52.6878 36.5939C53.5561 34.8573 54.0055 32.9415 54 31V26C53.9771 24.9463 53.5483 23.9422 52.803 23.197C52.0578 22.4517 51.0537 22.0229 50 22C48.7888 19.8838 47.0426 18.1232 44.9365 16.8946C42.8303 15.6661 40.4382 15.0127 38 15H37C29.26 15 22.8 21.12 22.8 28.67V31C22.8 34.7 24.8 38.92 27.7 40.84M32 49V54L23.1 55.53C16.72 56.46 12 61.62 12 67.69V73.17C12.0204 74.0862 12.3637 74.9658 12.9692 75.6537C13.5748 76.3416 14.4038 76.7936 15.31 76.93L26.17 78.93C34.3243 80.4 42.6757 80.4 50.83 78.93L61.69 76.93C62.5962 76.7936 63.4252 76.3416 64.0308 75.6537C64.6363 74.9658 64.9796 74.0862 65 73.17V66.17M45 49V54M45 54L53.9 55.53L54.75 55.83L45 54ZM23 73V78.32M54 73V78.32" stroke="#00008F" stroke-width="2" stroke-linecap="round" stroke-linejoin="round"/>
<path d="M70 35.0001C67.2055 34.9928 64.4578 35.7177 62.0305 37.1024C59.6031 38.4872 57.5808 40.4835 56.1648 42.8927C54.7488 45.302 53.9885 48.04 53.9596 50.8344C53.9307 53.6288 54.6341 56.382 56 58.8201L54 67.0001L62.18 65.0001C64.3139 66.1807 66.6895 66.8578 69.1251 66.9798C71.5608 67.1019 73.9921 66.6655 76.2334 65.704C78.4746 64.7426 80.4664 63.2816 82.0565 61.4326C83.6467 59.5836 84.7931 57.3956 85.4083 55.0357C86.0234 52.6758 86.091 50.2065 85.6058 47.8166C85.1206 45.4266 84.0955 43.1792 82.6088 41.246C81.1221 39.3128 79.2131 37.7451 77.0278 36.6626C74.8425 35.58 72.4387 35.0114 70 35.0001V35.0001Z" stroke="#00008F" stroke-width="2" stroke-linecap="round" stroke-linejoin="round"/>
<path d="M66 47C66 45.9391 66.4214 44.9217 67.1715 44.1716C67.9217 43.4214 68.9391 43 70 43C71.0608 43 72.0782 43.4214 72.8284 44.1716C73.5785 44.9217 74 45.9391 74 47C74 49.21 71.56 50.44 70 52V55M70 60V59M28.46 54.61L36.14 64.7C36.4035 65.0984 36.7614 65.4256 37.1819 65.6524C37.6023 65.8792 38.0723 65.9986 38.55 66C39 65.9992 39.4438 65.8941 39.8464 65.6928C40.2489 65.4915 40.5993 65.1996 40.87 64.84L48.5 54.6" stroke="#00008F" stroke-width="2" stroke-linecap="round" stroke-linejoin="round"/>
</svg>

<svg width="96" height="96" viewBox="0 0 96 96" fill="none" xmlns="http://www.w3.org/2000/svg"><path d="M49 30c-2.76 0-5.93-1.45-7-4-1.73 3.68-3.75 6-9 6h-5v7.68C28 45.93 31.82 51 38.5 51S49 45.93 49 39.68V30z" stroke="#00008F" stroke-width="2" stroke-linecap="round" stroke-linejoin="round"/><path d="M49 41a12.43 12.43 0 005-10v-5a4.09 4.09 0 00-4-4 13.91 13.91 0 00-12-7h-1c-7.74 0-14.2 6.12-14.2 13.67V31c0 3.7 2 7.92 4.9 9.84M32 49v5l-8.9 1.53c-6.38.93-11.1 6.09-11.1 12.16v5.48a3.89 3.89 0 003.31 3.76l10.86 2a69.499 69.499 0 0024.66 0l10.86-2A3.89 3.89 0 0065 73.17v-7M45 49v5m0 0l8.9 1.53.85.3L45 54zM23 73v5.32M54 73v5.32" stroke="#00008F" stroke-width="2" stroke-linecap="round" stroke-linejoin="round"/><path d="M70 35a16 16 0 00-14 23.82L54 67l8.18-2A16 16 0 1070 35v0z" stroke="#00008F" stroke-width="2" stroke-linecap="round" stroke-linejoin="round"/><path d="M66 47a4 4 0 118 0c0 2.21-2.44 3.44-4 5v3m0 5v-1m-41.54-4.39l7.68 10.09a2.9 2.9 0 002.41 1.3 2.91 2.91 0 002.32-1.16L48.5 54.6" stroke="#00008F" stroke-width="2" stroke-linecap="round" stroke-linejoin="round"/></svg>
